packages/foundations/assets/icons/functional/images/security/lock_open_12_filled.svg

<svg width="12" height="12" viewBox="0 0 12 12" fill="none" xmlns="http://www.w3.org/2000/svg">
<g clip-path="url(#clip0_2214_5841)">
<path fill-rule="evenodd" clip-rule="evenodd" d="M6.00002 1.20001C7.162 1.20001 8.15092 2.03146 8.35967 3.16173C8.41986 3.48759 8.20449 3.80054 7.87863 3.86073C7.57604 3.91661 7.28459 3.7349 7.19631 3.44776L7.17963 3.37968C7.07552 2.81599 6.58076 2.40001 6.00002 2.40001C5.36761 2.40001 4.84949 2.88938 4.8037 3.5101L4.80041 3.59963V4.81031H8.40002C9.06277 4.81031 9.60002 5.34757 9.60002 6.01031V9.60001C9.60002 10.2628 9.06277 10.8 8.40002 10.8H3.60002C2.93728 10.8 2.40002 10.2628 2.40002 9.60001V6.01031C2.40002 5.34757 2.93728 4.81031 3.60002 4.81031L3.60041 3.59963C3.60041 2.27436 4.67475 1.20001 6.00002 1.20001ZM6.00002 6.60001C5.69232 6.60001 5.43872 6.83164 5.40406 7.13004L5.40002 7.20001V8.39707L5.40406 8.46704C5.43872 8.76545 5.69232 8.99707 6.00002 8.99707C6.30773 8.99707 6.56133 8.76545 6.59599 8.46704L6.60002 8.39707V7.20001L6.59599 7.13004C6.56133 6.83164 6.30773 6.60001 6.00002 6.60001Z" fill="#1A1C1F"/>
</g>
<defs>
<clipPath id="clip0_2214_5841">
<rect width="12" height="12" fill="white"/>
</clipPath>
</defs>
</svg>

<svg xmlns="http://www.w3.org/2000/svg" width="12" height="12" fill="none"><g clip-path="url(#a)"><path fill="#1A1C1F" fill-rule="evenodd" d="M6 1.2a2.4 2.4 0 0 1 2.36 1.962.6.6 0 0 1-1.164.286L7.18 3.38a1.2 1.2 0 0 0-2.376.13L4.8 3.6v1.21h3.6a1.2 1.2 0 0 1 1.2 1.2V9.6a1.2 1.2 0 0 1-1.2 1.2H3.6a1.2 1.2 0 0 1-1.2-1.2V6.01a1.2 1.2 0 0 1 1.2-1.2V3.6A2.4 2.4 0 0 1 6 1.2m0 5.4a.6.6 0 0 0-.596.53L5.4 7.2v1.197l.004.07a.6.6 0 0 0 1.192 0l.004-.07V7.2l-.004-.07A.6.6 0 0 0 6 6.6" clip-rule="evenodd"/></g><defs><clipPath id="a"><path fill="#fff" d="M0 0h12v12H0z"/></clipPath></defs></svg>
